ir/maps-turn-right.svg

<svg stroke-width="1.5" viewBox="0 0 24 24" fill="none" xmlns="http://www.w3.org/2000/svg" height="1em" width="1em">
  <path d="M4.36463 19.787L11.6678 13.2953C11.8573 13.1269 12.1427 13.1269 12.3322 13.2953L19.6354 19.787C20.0155 20.1249 19.707 20.7486 19.2078 20.6515L12.0954 19.2686C12.0324 19.2563 11.9676 19.2563 11.9046 19.2686L4.79225 20.6515C4.29295 20.7486 3.98446 20.1249 4.36463 19.787Z" stroke="currentColor" stroke-linecap="round" stroke-linejoin="round"/>
  <path d="M19 6.5H16C16 6.5 16 6.5 16 6.5C16 6.5 12 6.5 12 10.5" stroke="currentColor" stroke-linecap="round" stroke-linejoin="round"/>
  <path d="M15.5 9L19 6.5L15.5 4" stroke="currentColor" stroke-linecap="round" stroke-linejoin="round"/>
</svg>

<svg stroke-width="1.5" viewBox="0 0 24 24" fill="none" xmlns="http://www.w3.org/2000/svg" height="1em" width="1em">
  <path d="m4.365 19.787 7.303-6.492a.5.5 0 0 1 .664 0l7.303 6.492c.38.338.072.962-.427.864l-7.113-1.382a.498.498 0 0 0-.19 0l-7.113 1.383c-.499.097-.808-.527-.427-.865ZM19 6.5h-3s0 0 0 0-4 0-4 4" stroke="currentColor" stroke-linecap="round" stroke-linejoin="round"/>
  <path d="M15.5 9 19 6.5 15.5 4" stroke="currentColor" stroke-linecap="round" stroke-linejoin="round"/>
</svg>
